krita/pics/tools/SVG/16/light_tool_perspectivegrid.svg

<?xml version="1.0" encoding="UTF-8" standalone="no"?>
<svg
   xmlns:dc="http://purl.org/dc/elements/1.1/"
   xmlns:cc="http://creativecommons.org/ns#"
   xmlns:rdf="http://www.w3.org/1999/02/22-rdf-syntax-ns#"
   xmlns:svg="http://www.w3.org/2000/svg"
   xmlns="http://www.w3.org/2000/svg"
   version="1.1"
   id="svg2"
   viewBox="0 0 32 32.000001"
   height="32"
   width="32">
  <defs
     id="defs4" />
  <metadata
     id="metadata7">
    <rdf:RDF>
      <cc:Work
         rdf:about="">
        <dc:format>image/svg+xml</dc:format>
        <dc:type
           rdf:resource="http://purl.org/dc/dcmitype/StillImage" />
        <dc:title></dc:title>
        <dc:creator>
          <cc:Agent>
            <dc:title>Andrei Rudenko</dc:title>
          </cc:Agent>
        </dc:creator>
        <cc:license
           rdf:resource="http://creativecommons.org/licenses/by-sa/4.0/" />
      </cc:Work>
      <cc:License
         rdf:about="http://creativecommons.org/licenses/by-sa/4.0/">
        <cc:permits
           rdf:resource="http://creativecommons.org/ns#Reproduction" />
        <cc:permits
           rdf:resource="http://creativecommons.org/ns#Distribution" />
        <cc:requires
           rdf:resource="http://creativecommons.org/ns#Notice" />
        <cc:requires
           rdf:resource="http://creativecommons.org/ns#Attribution" />
        <cc:permits
           rdf:resource="http://creativecommons.org/ns#DerivativeWorks" />
        <cc:requires
           rdf:resource="http://creativecommons.org/ns#ShareAlike" />
      </cc:License>
    </rdf:RDF>
  </metadata>
  <g
     style="display:none"
     id="layer1" />
  <g
     style="display:inline"
     id="layer2">
    <path
       id="path5522"
       d="M 9,8 8,10 11.554688,10 12,8 9,8 Z m 5.5,0 -0.277344,2 3.554688,0 L 17.5,8 14.5,8 Z M 20,8 20.445312,10 24,10 23,8 20,8 Z M 7,12 5,16 10.222656,16 11.111328,12 7,12 Z m 6.945312,0 -0.55664,4 5.222656,0 -0.55664,-4 -4.109376,0 z m 6.94336,0 0.888672,4 L 27,16 25,12 20.888672,12 Z M 3.5,19 0,26 8,26 9.5546875,19 3.5,19 Z M 12.972656,19 12,26 l 8,0 -0.972656,-7 -6.054688,0 z M 22.445312,19 24,26 l 8,0 -3.5,-7 -6.054688,0 z"
       style="fill:#d2d2d2;fill-opacity:1;fill-rule:evenodd;stroke:none;stroke-width:1px;stroke-linecap:butt;stroke-linejoin:miter;stroke-opacity:1" />
  </g>
  <g
     style="display:none"
     id="layer5" />
</svg>

<svg xmlns:dc="http://purl.org/dc/elements/1.1/" xmlns:cc="http://creativecommons.org/ns#" xmlns:rdf="http://www.w3.org/1999/02/22-rdf-syntax-ns#" xmlns="http://www.w3.org/2000/svg" version="1.1" id="svg2" viewBox="0 0 32 32.000001" height="32" width="32"><metadata id="metadata7"><rdf:RDF><cc:Work><dc:format>image/svg+xml</dc:format><dc:type rdf:resource="http://purl.org/dc/dcmitype/StillImage"/><dc:title/><dc:creator><cc:Agent><dc:title>Andrei Rudenko</dc:title></cc:Agent></dc:creator><cc:license rdf:resource="http://creativecommons.org/licenses/by-sa/4.0/"/></cc:Work><cc:License rdf:about="http://creativecommons.org/licenses/by-sa/4.0/"><cc:permits rdf:resource="http://creativecommons.org/ns#Reproduction"/><cc:permits rdf:resource="http://creativecommons.org/ns#Distribution"/><cc:requires rdf:resource="http://creativecommons.org/ns#Notice"/><cc:requires rdf:resource="http://creativecommons.org/ns#Attribution"/><cc:permits rdf:resource="http://creativecommons.org/ns#DerivativeWorks"/><cc:requires rdf:resource="http://creativecommons.org/ns#ShareAlike"/></cc:License></rdf:RDF></metadata><g style="display:inline" id="layer2"><path id="path5522" d="m9 8-1 2h3.555L12 8H9zm5.5 0-.277 2h3.554L17.5 8h-3zM20 8l.445 2H24l-1-2h-3zM7 12l-2 4h5.223l.888-4H7zm6.945 0-.556 4h5.222l-.556-4h-4.11zm6.944 0 .888 4H27l-2-4h-4.111zM3.5 19 0 26h8l1.555-7H3.5zm9.473 0L12 26h8l-.973-7h-6.054zm9.472 0L24 26h8l-3.5-7h-6.055z" style="fill:#d2d2d2;fill-opacity:1;fill-rule:evenodd;stroke:none;stroke-width:1px;stroke-linecap:butt;stroke-linejoin:miter;stroke-opacity:1"/></g></svg>
